X: 13855
T: Fourth Floor, The
R: reel
M: 4/4
K: Dmajor
|dddf addd|fded ddfd|eccc ABcd|eaaf gece|
dddf addd|fded ddfd|eccc ABcd|eddc dBAB|
dddf addd|fded ddfd|eccc ABcd|eaaf gece|
dddf addd|fded ddfd|eccc ABcd|eddc d3 f|
fddd BdAd|fddd Adfa|eccc ABcd|eaaf gece|
eddd BdAd|fddd Adfa|eccc ABcd|eddc d3 f|
addd BdAd|fddd Adfa|eccc cddd|deee efff|
addd BdAd|fddd Adfa|eccc ABcd|eddc d3 e|
fA (3AAA BAdA|(3AAA fA (3AAA fA|eA (3AAA BAeA|(3AAA eA (3AAA eA|
fA (3AAA BAdA|(3AAA fA (3AAA fA|eA (3AAA eaaf|gecA ddde|
fA (3AAA BAdA|(3AAA fA (3AAA fA|eA (3AAA BAeA|(3AAA eA (3AAA eA|
fA (3AAA BAdA|(3AAA fA (3AAA fA|aAgA fAeA|cAeA d4||

